assets/logos/phurn.svg

<?xml version="1.0" encoding="utf-8"?>
<svg id="Layer_1" xmlns="http://www.w3.org/2000/svg" viewBox="0 0 128.15 84.76" xmlns:bx="https://boxy-svg.com" width="128.15px" height="84.76px"><defs><style>.cls-1{stroke-width:2px;}.cls-1,.cls-2{fill:#ea3a00;stroke:#ea3a00;stroke-miterlimit:10;}.cls-2{stroke-width:3px;}</style><bx:export><bx:file format="svg"/></bx:export></defs><path class="cls-2" d="M118.65,27.43c5,.74,7.11,4.16,7.66,8.66.38,3.11.38,6.23.28,9.36-.17,5.6.08,11.2-.13,16.8-.08,1.98-.47,3.92-1.38,5.62-2.02,3.79-5.13,6.39-9.32,7.58-1.37.39-2.8.64-4.2.55-1.42-.09-2.79.91-4.21.07-.21-.12-.55,0-.83-.02-2.92-.27-5.84.11-8.76.08-13.84-.16-27.68-.07-41.52-.07-8.64,0-17.28-.13-25.92.08-2.81.07-5.6-.35-8.4-.08-.16.02-.33-.03-.48,0-1.28.36-2.54.19-3.85.04-1.48-.17-2.98-.23-4.43-.54-6.34-1.33-10.67-6.16-11.39-12.95-.38-3.59-.25-7.2-.24-10.8.01-4.44-.07-8.88.1-13.32.05-1.34.2-2.66.46-3.96.32-1.6.89-3.11,2.08-4.33.93-.95,1.96-1.81,3.25-2.13,1.65-.4,3.16-1.19,5.05-.82,2.27.45,4.41.97,6.23,2.47,3.48,2.86,4.68,6.83,5.26,11.05.49,3.62.57,7.27.51,10.92-.03,2.14.38,2.52,2.51,2.52h73.92c2.69,0,2.78-.07,2.76-2.76-.04-4.72.07-9.42,1.2-14.04,1.23-5.04,4.24-8.38,9.25-9.82.98-.28,4.06-.23,4.56-.16Z"/><path class="cls-2" d="M19.53,76.65c.07,1.24-.15,2.48-.13,3.72.02,1.78,1.22,2.9,2.89,2.88,1.04-.01,2.08.03,3.12,0,1.64-.06,2.23-.62,2.52-2.27.25-1.43.05-2.88.12-4.32"/><path class="cls-2" d="M100.05,76.65c0,1.28-.01,2.56,0,3.84.02,1.88,1.27,2.72,2.76,2.76,1.04.02,2.08.03,3.12,0,1.59-.04,2.38-.79,2.64-2.39.23-1.4.05-2.8.12-4.2"/><g id="Generative_Object"><path class="cls-1" d="M37.1,6.72c1.52,1.63-.64,5.54-1.06,7.72-.53,2.75-.34,4.85.22,7.36.02.08.1.18.06.3-.69,3.87,3.57,8.21,3.92,10.93.47,3.71-3.87,4.69-6.59,3.06-5.87-3.52-3.33-9.32,1.99-13.62-.24-.4-.84-.58-1.25-.79-4.83-2.55-8.1-6.27-4.5-12.4,1.45-2.48,5.15-4.77,7.2-2.57Z"/><path class="cls-1" d="M59.26,14.26c.36-1.38.77-2.96,1.34-4.31.98-2.32,3.81-5.56,2.71-7.59-2.37-4.39-11.38,2.69-9,9.04.67,1.8,2.5,3.32,3.12,5.23-3.17,2.76-6.71,6.12-4.55,9.9,1.5,2.61,6.4,3.51,6.49-.45.06-2.84-2.1-6.14-.52-9.66l.02-.16c.07-.67.22-1.34.39-1.99Z"/><path class="cls-1" d="M79.89,14.94c.69-1.41,1.6-2.65,2.56-3.93,1.09-1.44,4.05-3.4,2.38-5.1-2.12-2.15-6.27.69-7.64,3.03-1.71,2.92-.43,4.87.03,7.56l.03.14c-1.65,1.96-4.58,2.91-5.03,5.61-.35,2.1,1.66,6.49,4.57,4.49,1.52-1.04,1.17-4.66,1.48-6.37.28-1.51.92-3.98,1.62-5.42Z"/><path class="cls-1" d="M 95.414 20.394 C 96.624 21.404 101.472 24.091 102.112 24.814 C 102.752 25.537 102.737 26.06 101.078 25.652 C 100.312 25.464 96.164 23.11 95.174 22.46"/><path class="cls-1" d="M 93.376 21.48 C 93.42 21.38 93.322 20.898 93.331 20.698 C 93.331 20.652 93.322 20.616 93.331 20.57 C 93.384 19.642 93.055 18.869 93.393 17.859 C 94.23 15.394 98.505 13.484 100.437 14.958 C 103.091 16.977 98.621 18.542 97.24 19.379 C 95.05 20.707 95.922 20.634 95.352 22.735 C 95.335 22.79 95.335 22.835 95.317 22.89 C 95.005 24.045 94.293 27.629 93.874 28.375 C 93.269 29.44 91.862 29.558 91.114 28.894 C 90.312 28.184 90.063 25.51 90.455 24.409 C 91.051 22.717 93.18 21.908 93.376 21.498 L 93.376 21.48 Z" style=""/><path class="cls-1" d="M70.16,14.35c.55-1.51,1.02-2.68,1.85-4.12,1.2-2.09,4.79-5.34,2.98-7.21-3.09-3.19-9.32,2.75-9.13,7.07.1,2.2,2.13,3.73,1.83,5.78l-.22.24c-2.98,3.28-6.44,5.54-3.73,9.58,1.17,1.75,4.3,2.69,5.17-.16.65-2.14-.84-6.78.68-9.44l.04-.15c.17-.54.34-1.08.53-1.6Z"/><path class="cls-1" d="M47.63,16.11c0-.06.04-.13.05-.2.25-1.9.49-3.76,1.15-5.66.76-2.2,3.26-5.25,1.25-6.97-2.3-1.97-5.9.48-7.32,2.94-2.95,5.11-.92,8.79,3.12,11.37.15.28-.15.49-.27.73-.04.09-.13.17-.18.26-1.52,2.76-4.16,5.01-4.12,8.33.04,3.72,6.76,6.84,8.27,2.51.48-1.36-1.68-5.47-1.97-7.27-.22-1.36-.18-2.82-.13-4.23v-.15c.03-.55.07-1.1.14-1.65Z"/><path class="cls-1" d="M 87.613 17.913 C 88.193 16.789 88.957 15.801 89.765 14.782 C 90.681 13.635 93.17 12.073 91.765 10.719 C 89.984 9.006 86.495 11.268 85.343 13.133 C 83.906 15.459 84.982 17.012 85.368 19.156 L 85.394 19.266 C 84.007 20.829 81.544 21.586 81.166 23.737 C 80.871 25.41 82.561 28.907 85.007 27.313 C 86.284 26.486 85.991 23.601 86.251 22.239 C 86.487 21.035 87.025 19.068 87.613 17.921 L 87.613 17.913 Z" style=""/><path stroke-width="0" d="M 24.394 24.056 C 24.473 24.027 47.984 13.736 64.462 14.336 C 83.355 15.023 95.652 20.481 96.012 20.519 C 96.649 20.586 95.763 22.119 95.492 22.183 C 95.363 22.213 78.369 14.989 60.472 15.865 C 43.017 16.72 25.308 25.942 25.039 25.914 C 24.527 25.861 24.243 24.113 24.394 24.056 Z" style="stroke-width: 2px; fill: rgb(234, 58, 0); paint-order: stroke; stroke: rgb(234, 58, 0);"/></g></svg>

<?xml version="1.0" encoding="utf-8"?>
<svg id="Layer_1" xmlns="http://www.w3.org/2000/svg" viewBox="0 0 128.15 84.76" xmlns:bx="https://boxy-svg.com" width="128.15px" height="84.76px"><defs><style>.cls-1{stroke-width:2px;}.cls-1,.cls-2{fill:#ea3a00;stroke:#ea3a00;stroke-miterlimit:10;}.cls-2{stroke-width:3px;}</style><bx:export><bx:file format="svg"/></bx:export></defs><path class="cls-2" d="M 114.11 27.59 C 115.595 27.482 119.521 27.332 122.626 29.213 C 125.169 30.754 126.062 34.064 126.31 36.09 C 126.69 39.2 126.69 42.32 126.59 45.45 C 126.42 51.05 126.67 56.65 126.46 62.25 C 126.38 64.23 125.99 66.17 125.08 67.87 C 123.06 71.66 119.95 74.26 115.76 75.45 C 114.39 75.84 112.982 75.995 111.56 76 C 110.137 76.005 100.68 76.16 97.76 76.13 C 83.92 75.97 70.08 76.06 56.24 76.06 C 47.6 76.06 38.96 75.93 30.32 76.14 C 27.51 76.21 18.9 76.25 17.59 76.1 C 16.11 75.93 14.61 75.87 13.16 75.56 C 6.82 74.23 2.49 69.4 1.77 62.61 C 1.39 59.02 1.52 55.41 1.53 51.81 C 1.54 47.37 1.46 42.93 1.63 38.49 C 1.68 37.15 1.83 35.83 2.09 34.53 C 2.41 32.93 2.98 31.42 4.17 30.2 C 5.1 29.25 6.16 28.494 7.42 28.07 C 9.234 27.46 9.98 27.189 12.47 27.25 C 14.783 27.306 16.88 28.22 18.7 29.72 C 22.18 32.58 23.38 36.55 23.96 40.77 C 24.45 44.39 24.53 48.04 24.47 51.69 C 24.44 53.83 24.85 54.21 26.98 54.21 L 100.9 54.21 C 103.59 54.21 103.68 54.14 103.66 51.45 C 103.62 46.73 103.73 42.03 104.86 37.41 C 106.09 32.37 108.911 27.967 114.11 27.59 Z" style=""/><path class="cls-2" d="M19.53,76.65c.07,1.24-.15,2.48-.13,3.72.02,1.78,1.22,2.9,2.89,2.88,1.04-.01,2.08.03,3.12,0,1.64-.06,2.23-.62,2.52-2.27.25-1.43.05-2.88.12-4.32" style=""/><path class="cls-2" d="M100.05,76.65c0,1.28-.01,2.56,0,3.84.02,1.88,1.27,2.72,2.76,2.76,1.04.02,2.08.03,3.12,0,1.59-.04,2.38-.79,2.64-2.39.23-1.4.05-2.8.12-4.2" style=""/><g id="Generative_Object"><path class="cls-1" d="M37.1,6.72c1.52,1.63-.64,5.54-1.06,7.72-.53,2.75-.34,4.85.22,7.36.02.08.1.18.06.3-.69,3.87,3.57,8.21,3.92,10.93.47,3.71-3.87,4.69-6.59,3.06-5.87-3.52-3.33-9.32,1.99-13.62-.24-.4-.84-.58-1.25-.79-4.83-2.55-8.1-6.27-4.5-12.4,1.45-2.48,5.15-4.77,7.2-2.57Z" style=""/><path class="cls-1" d="M59.26,14.26c.36-1.38.77-2.96,1.34-4.31.98-2.32,3.81-5.56,2.71-7.59-2.37-4.39-11.38,2.69-9,9.04.67,1.8,2.5,3.32,3.12,5.23-3.17,2.76-6.71,6.12-4.55,9.9,1.5,2.61,6.4,3.51,6.49-.45.06-2.84-2.1-6.14-.52-9.66l.02-.16c.07-.67.22-1.34.39-1.99Z" style=""/><path class="cls-1" d="M79.89,14.94c.69-1.41,1.6-2.65,2.56-3.93,1.09-1.44,4.05-3.4,2.38-5.1-2.12-2.15-6.27.69-7.64,3.03-1.71,2.92-.43,4.87.03,7.56l.03.14c-1.65,1.96-4.58,2.91-5.03,5.61-.35,2.1,1.66,6.49,4.57,4.49,1.52-1.04,1.17-4.66,1.48-6.37.28-1.51.92-3.98,1.62-5.42Z" style=""/><path class="cls-1" d="M 95.414 20.394 C 96.624 21.404 101.472 24.091 102.112 24.814 C 102.752 25.537 102.737 26.06 101.078 25.652 C 100.312 25.464 96.164 23.11 95.174 22.46" style=""/><path class="cls-1" d="M 93.376 21.48 C 93.42 21.38 93.322 20.898 93.331 20.698 C 93.331 20.652 93.322 20.616 93.331 20.57 C 93.384 19.642 93.055 18.869 93.393 17.859 C 94.23 15.394 98.505 13.484 100.437 14.958 C 103.091 16.977 98.621 18.542 97.24 19.379 C 95.05 20.707 95.922 20.634 95.352 22.735 C 95.335 22.79 95.335 22.835 95.317 22.89 C 95.005 24.045 94.293 27.629 93.874 28.375 C 93.269 29.44 91.862 29.558 91.114 28.894 C 90.312 28.184 90.063 25.51 90.455 24.409 C 91.051 22.717 93.18 21.908 93.376 21.498 L 93.376 21.48 Z" style=""/><path class="cls-1" d="M 70.16 14.34 C 70.16 14.34 71.18 11.67 72.01 10.23 C 73.21 8.14 76.8 4.89 74.99 3.02 C 71.9 -0.17 65.67 5.77 65.86 10.09 C 65.96 12.29 67.99 13.82 67.69 15.87 L 67.47 16.11 C 64.49 19.39 61.03 21.65 63.74 25.69 C 64.91 27.44 68.04 28.38 68.91 25.53 C 69.56 23.39 68.07 18.75 69.59 16.09 L 69.63 15.94 C 69.8 15.4 69.97 14.86 70.16 14.34 Z" style=""/><path class="cls-1" d="M47.63,16.11c0-.06.04-.13.05-.2.25-1.9.49-3.76,1.15-5.66.76-2.2,3.26-5.25,1.25-6.97-2.3-1.97-5.9.48-7.32,2.94-2.95,5.11-.92,8.79,3.12,11.37.15.28-.15.49-.27.73-.04.09-.13.17-.18.26-1.52,2.76-4.16,5.01-4.12,8.33.04,3.72,6.76,6.84,8.27,2.51.48-1.36-1.68-5.47-1.97-7.27-.22-1.36-.18-2.82-.13-4.23v-.15c.03-.55.07-1.1.14-1.65Z" style=""/><path class="cls-1" d="M 87.613 17.913 C 88.193 16.789 88.957 15.801 89.765 14.782 C 90.681 13.635 93.17 12.073 91.765 10.719 C 89.984 9.006 86.495 11.268 85.343 13.133 C 83.906 15.459 84.982 17.012 85.368 19.156 L 85.394 19.266 C 84.007 20.829 81.544 21.586 81.166 23.737 C 80.871 25.41 82.561 28.907 85.007 27.313 C 86.284 26.486 85.991 23.601 86.251 22.239 C 86.487 21.035 87.025 19.068 87.613 17.921 L 87.613 17.913 Z" style=""/><path stroke-width="0" d="M 24.394 24.056 C 24.473 24.027 47.984 13.736 64.462 14.336 C 83.355 15.023 95.652 20.481 96.012 20.519 C 96.649 20.586 95.763 22.119 95.492 22.183 C 95.363 22.213 78.369 14.989 60.472 15.865 C 43.017 16.72 25.308 25.942 25.039 25.914 C 24.527 25.861 24.243 24.113 24.394 24.056 Z" style="stroke-width: 2px; paint-order: stroke; stroke: rgb(234, 58, 0); fill: rgb(234, 58, 0);"/></g></svg>
